;FLAVOR:Marlin
;TIME:3088
;Filament used: 2.242m
;Layer height: 0.28
;MINX:74.463
;MINY:65.691
;MINZ:0.28
;MAXX:154.466
;MAXY:167.654
;MAXZ:12.88
;Generated with Cura_SteamEngine 4.8.0
M140 S50
M105
M190 S50
M104 S200
M105
M109 S200
M82 ;absolute extrusion mode
; Ender 3 Custom Start G-code
G92 E0 ; Reset Extruder
G28 ; Home all axes
G1 Z2.0 F3000 ; Move Z Axis up little to prevent scratching of Heat Bed
G1 X0.1 Y20 Z0.3 F5000.0 ; Move to start position
G1 X0.1 Y200.0 Z0.3 F1500.0 E15 ; Draw the first line
G1 X0.4 Y200.0 Z0.3 F5000.0 ; Move to side a little
G1 X0.4 Y20 Z0.3 F1500.0 E30 ; Draw the second line
G92 E0 ; Reset Extruder
G1 Z2.0 F3000 ; Move Z Axis up little to prevent scratching of Heat Bed
G1 X5 Y20 Z0.3 F5000.0 ; Move over to prevent blob squish
G92 E0
G92 E0
G1 F2700 E-5
;LAYER_COUNT:46
;LAYER:0
M107
G0 F6000 X77.466 Y71.19 Z0.28
;TYPE:SKIRT
G1 F2700 E0
G1 F1200 X77.916 Y70.698 E0.03105
G1 X78.543 Y70.055 E0.07287
G1 X79.057 Y69.543 E0.10665
G1 X79.527 Y69.088 E0.13711
G1 X80.228 Y68.465 E0.18078
G1 X80.683 Y68.113 E0.20756
G1 X80.914 Y67.944 E0.22089
G1 X81.694 Y67.423 E0.26457
G1 X82.515 Y66.971 E0.30821
G1 X83.766 Y66.443 E0.37144
G1 X84.031 Y66.35 E0.38451
G1 X84.929 Y66.077 E0.42822
G1 X85.846 Y65.882 E0.47187
G1 X86.518 Y65.79 E0.50346
G1 X86.783 Y65.762 E0.51586
G1 X87.779 Y65.702 E0.56233
G1 X88.627 Y65.691 E0.60182
G1 X140.341 Y65.691 E3.00984
G1 X141.116 Y65.701 E3.04593
G1 X142.421 Y65.798 E3.10686
G1 X142.83 Y65.853 E3.12608
G1 X143.753 Y66.018 E3.16974
G1 X144.659 Y66.26 E3.2134
G1 X145.541 Y66.579 E3.25708
G1 X146.25 Y66.9 E3.29332
G1 X146.488 Y67.018 E3.30569
G1 X147.31 Y67.47 E3.34937
G1 X148.09 Y67.99 E3.39302
G1 X148.777 Y68.535 E3.43385
G1 X148.942 Y68.677 E3.44399
G1 X149.417 Y69.111 E3.47395
G1 X150.121 Y69.793 E3.51959
G1 X150.505 Y70.178 E3.54491
G1 X151.039 Y70.726 E3.58054
G1 X151.868 Y71.68 E3.63939
G1 X151.929 Y71.759 E3.64404
G1 X152.158 Y72.068 E3.66194
G1 X152.275 Y72.231 E3.67129
G1 X152.789 Y73.015 E3.71494
G1 X153.234 Y73.841 E3.75863
G1 X153.608 Y74.701 E3.8023
G1 X153.775 Y75.166 E3.8253
G1 X153.874 Y75.463 E3.83988
G1 X154.132 Y76.365 E3.88357
G1 X154.313 Y77.285 E3.92723
G1 X154.386 Y77.878 E3.95505
G1 X154.393 Y77.95 E3.95842
G1 X154.443 Y78.808 E3.99844
G1 X154.461 Y79.77 E4.04324
G1 X154.463 Y79.976 E4.05283
G1 X154.462 Y85.016 E4.28751
G1 X154.466 Y87.076 E4.38344
G1 X154.462 Y140.073 E6.8512
G1 X154.452 Y140.778 E6.88403
G1 X154.438 Y141.212 E6.90425
G1 X154.422 Y141.5 E6.91768
G1 X154.39 Y141.961 E6.9392
G1 X154.367 Y142.233 E6.95191
G1 X154.313 Y142.805 E6.97866
G1 X154.11 Y144.113 E7.0403
G1 X153.908 Y145.04 E7.08448
G1 X153.822 Y145.405 E7.10194
G1 X153.725 Y145.787 E7.12029
G1 X153.34 Y147.003 E7.17968
G1 X153.198 Y147.375 E7.19822
G1 X153.075 Y147.683 E7.21366
G1 X152.953 Y147.974 E7.22836
G1 X152.672 Y148.626 E7.26142
G1 X152.128 Y149.717 E7.31818
G1 X151.985 Y149.968 E7.33164
G1 X151.823 Y150.242 E7.34646
G1 X151.583 Y150.633 E7.36782
G1 X151.268 Y151.131 E7.39526
G1 X150.493 Y152.208 E7.45704
G1 X149.906 Y152.927 E7.50026
G1 X149.645 Y153.234 E7.51903
G1 X149.375 Y153.541 E7.53806
G1 X148.523 Y154.408 E7.59466
G1 X148.167 Y154.728 E7.61695
G1 X147.897 Y154.961 E7.63356
G1 X147.707 Y155.121 E7.64513
G1 X147.223 Y155.52 E7.67433
G1 X146.172 Y156.287 E7.73492
G1 X145.4 Y156.783 E7.77765
G1 X145.049 Y156.999 E7.79684
G1 X144.658 Y157.23 E7.81798
G1 X143.557 Y157.799 E7.87569
G1 X143.148 Y157.981 E7.89654
G1 X142.858 Y158.104 E7.91121
G1 X142.231 Y158.362 E7.94278
G1 X142.126 Y158.412 E7.94819
G1 X140.671 Y159.014 E8.02151
G1 X138.369 Y160.042 E8.13891
G1 X136.102 Y161.132 E8.25604
G1 X133.862 Y162.289 E8.37343
G1 X131.694 Y163.486 E8.48875
G1 X128.594 Y165.34 E8.65694
G1 X128.075 Y165.662 E8.68538
G1 X127.251 Y166.126 E8.72942
G1 X126.995 Y166.256 E8.74279
G1 X126.141 Y166.644 E8.78646
G1 X125.257 Y166.959 E8.83016
G1 X124.641 Y167.13 E8.85993
G1 X124.58 Y167.145 E8.86286
G1 X123.66 Y167.33 E8.90655
G1 X123.052 Y167.408 E8.93509
G1 X122.076 Y167.506 E8.98077
G1 X121.575 Y167.56 E9.00423
G1 X121.016 Y167.611 E9.03037
G1 X120.08 Y167.654 E9.074
G1 X119.46 Y167.638 E9.10288
G1 X118.38 Y167.58 E9.15324
G1 X115.698 Y167.475 E9.27822
G1 X113.212 Y167.449 E9.39399
G1 X110.718 Y167.492 E9.51014
G1 X108.117 Y167.61 E9.63137
G1 X107.72 Y167.634 E9.64989
G1 X106.782 Y167.649 E9.69358
G1 X105.847 Y167.585 E9.73722
G1 X104.875 Y167.433 E9.78303
G1 X104.57 Y167.371 E9.79752
G1 X103.659 Y167.145 E9.84123
G1 X102.772 Y166.842 E9.88487
G1 X101.913 Y166.465 E9.92855
G1 X100.848 Y165.866 E9.98545
G1 X100.238 Y165.477 E10.01914
G1 X98.017 Y164.103 E10.14075
G1 X95.808 Y162.821 E10.25967
G1 X93.612 Y161.627 E10.37607
G1 X91.379 Y160.495 E10.49264
G1 X89.101 Y159.419 E10.60995
G1 X86.778 Y158.412 E10.72785
G1 X86.655 Y158.352 E10.73422
G1 X85.645 Y157.92 E10.78537
G1 X85.055 Y157.647 E10.81564
G1 X84.895 Y157.567 E10.82397
G1 X84.216 Y157.197 E10.85998
G1 X83.558 Y156.808 E10.89557
G1 X83.228 Y156.605 E10.91361
G1 X82.845 Y156.36 E10.93478
G1 X81.967 Y155.736 E10.98494
G1 X81.645 Y155.476 E11.00421
G1 X81.258 Y155.153 E11.02768
G1 X81.04 Y154.967 E11.04103
G1 X80.616 Y154.594 E11.06732
G1 X79.684 Y153.669 E11.12847
G1 X79.073 Y152.986 E11.17114
G1 X78.801 Y152.671 E11.19052
G1 X78.53 Y152.344 E11.21029
G1 X77.8 Y151.354 E11.26757
G1 X77.646 Y151.119 E11.28065
G1 X77.5 Y150.891 E11.29326
G1 X77.227 Y150.447 E11.31753
G1 X76.866 Y149.835 E11.35061
G1 X76.317 Y148.775 E11.4062
G1 X76.181 Y148.474 E11.42158
G1 X76.045 Y148.161 E11.43747
G1 X75.905 Y147.82 E11.45464
G1 X75.639 Y147.153 E11.48807
G1 X75.23 Y145.922 E11.54847
G1 X75.101 Y145.431 E11.57211
G1 X74.997 Y144.996 E11.59294
G1 X74.86 Y144.385 E11.6221
G1 X74.647 Y143.067 E11.68426
G1 X74.556 Y142.152 E11.72708
G1 X74.525 Y141.778 E11.74456
G1 X74.496 Y141.333 E11.76532
G1 X74.479 Y140.975 E11.78201
G1 X74.469 Y140.593 E11.7998
G1 X74.463 Y140.038 E11.82565
G1 X74.463 Y87.039 E14.2935
G1 X74.467 Y85.935 E14.34491
G1 X74.463 Y85.38 E14.37075
G1 X74.464 Y79.62 E14.63896
G1 X74.473 Y79.029 E14.66649
G1 X74.571 Y77.721 E14.72756
G1 X74.625 Y77.322 E14.74631
G1 X74.791 Y76.399 E14.78998
G1 X75.034 Y75.493 E14.83366
G1 X75.354 Y74.611 E14.87735
G1 X75.603 Y74.051 E14.90588
G1 X75.691 Y73.867 E14.91538
G1 X75.926 Y73.403 E14.9396
G1 X76.399 Y72.593 E14.98328
G1 X76.94 Y71.826 E15.02698
G1 X77.312 Y71.369 E15.05442
G1 X77.466 Y71.19 E15.06542
G0 F6000 X77.77 Y71.451
G1 F1200 X78.203 Y70.977 E15.09531
G1 X78.826 Y70.338 E15.13687
G1 X79.335 Y69.83 E15.17035
G1 X79.805 Y69.375 E15.20081
G1 X80.494 Y68.764 E15.24369
G1 X80.919 Y68.436 E15.26869
G1 X81.15 Y68.267 E15.28202
G1 X81.916 Y67.756 E15.32489
G1 X82.723 Y67.314 E15.36774
G1 X83.899 Y66.82 E15.42713
G1 X84.164 Y66.727 E15.44021
G1 X85.045 Y66.46 E15.48308
G1 X85.946 Y66.271 E15.52594
G1 X86.56 Y66.188 E15.55479
G1 X86.825 Y66.16 E15.5672
G1 X87.785 Y66.102 E15.61199
G1 X88.627 Y66.091 E15.6512
G1 X140.341 Y66.091 E18.05922
G1 X141.11 Y66.101 E18.09503
G1 X142.368 Y66.195 E18.15377
G1 X142.777 Y66.25 E18.17298
G1 X143.683 Y66.412 E18.21584
G1 X144.572 Y66.652 E18.25872
G1 X145.436 Y66.968 E18.30156
G1 X146.073 Y67.258 E18.33415
G1 X146.311 Y67.376 E18.34652
G1 X147.117 Y67.821 E18.38939
G1 X147.882 Y68.333 E18.43225
G1 X148.516 Y68.839 E18.47002
G1 X148.681 Y68.981 E18.48016
G1 X149.139 Y69.398 E18.509
G1 X149.729 Y69.969 E18.54723
G1 X150.219 Y70.457 E18.57943
G1 X150.753 Y71.005 E18.61506
G1 X151.551 Y71.925 E18.67177
G1 X151.833 Y72.301 E18.69366
G1 X151.95 Y72.464 E18.703
G1 X152.454 Y73.234 E18.74585
G1 X152.889 Y74.046 E18.78875
G1 X153.395 Y75.293 E18.85141
G1 X153.494 Y75.59 E18.86599
G1 X153.747 Y76.475 E18.90885
G1 X153.922 Y77.379 E18.95172
G1 X153.988 Y77.916 E18.97692
G1 X153.995 Y77.988 E18.98028
G1 X154.043 Y78.816 E19.0189
G1 X154.063 Y79.976 E19.07293
G1 X154.062 Y85.011 E19.30738
G1 X154.066 Y87.076 E19.40353
G1 X154.062 Y140.067 E21.87102
G1 X154.052 Y140.772 E21.90385
G1 X154.038 Y141.194 E21.92351
G1 X154.023 Y141.472 E21.93647
G1 X153.991 Y141.933 E21.95799
G1 X153.969 Y142.195 E21.97023
G1 X153.915 Y142.767 E21.99699
G1 X153.719 Y144.028 E22.05641
G1 X153.517 Y144.955 E22.10059
G1 X153.434 Y145.307 E22.11743
G1 X153.337 Y145.689 E22.13578
G1 X152.966 Y146.86 E22.19298
G1 X152.824 Y147.232 E22.21152
G1 X152.706 Y147.529 E22.2264
G1 X152.585 Y147.815 E22.24086
G1 X152.304 Y148.467 E22.27392
G1 X151.78 Y149.519 E22.32864
G1 X151.637 Y149.77 E22.34209
G1 X151.482 Y150.034 E22.35635
G1 X151.245 Y150.419 E22.3774
G1 X150.93 Y150.917 E22.40484
G1 X150.183 Y151.955 E22.46439
G1 X149.596 Y152.674 E22.50761
G1 X149.345 Y152.97 E22.52568
G1 X149.075 Y153.277 E22.54472
G1 X148.254 Y154.112 E22.59924
G1 X148.119 Y154.235 E22.60775
G1 X147.905 Y154.425 E22.62107
G1 X147.453 Y154.812 E22.64878
G1 X146.969 Y155.211 E22.67799
G1 X145.956 Y155.95 E22.73638
G1 X145.184 Y156.446 E22.7791
G1 X144.846 Y156.654 E22.79758
G1 X144.455 Y156.885 E22.81873
G1 X143.393 Y157.434 E22.8744
G1 X142.991 Y157.613 E22.89489
G1 X142.706 Y157.734 E22.90931
G1 X142.117 Y157.976 E22.93896
G1 X141.974 Y158.042 E22.94629
G1 X140.491 Y158.655 E23.02101
G1 X138.211 Y159.674 E23.1373
G1 X135.938 Y160.767 E23.25474
G1 X133.663 Y161.942 E23.37397
G1 X131.497 Y163.138 E23.48918
G1 X128.357 Y165.015 E23.65952
G1 X127.863 Y165.322 E23.68661
G1 X127.069 Y165.769 E23.72904
G1 X126.813 Y165.899 E23.74241
G1 X125.975 Y166.28 E23.78527
G1 X125.107 Y166.587 E23.82814
G1 X124.545 Y166.741 E23.85527
G1 X124.484 Y166.756 E23.8582
G1 X123.581 Y166.937 E23.90108
G1 X123.012 Y167.01 E23.9278
G1 X121.996 Y167.112 E23.97534
G1 X121.331 Y167.182 E24.00648
G1 X120.981 Y167.213 E24.02284
G1 X120.061 Y167.254 E24.06572
G1 X119.481 Y167.239 E24.09274
G1 X118.344 Y167.178 E24.14576
G1 X115.718 Y167.075 E24.26813
G1 X113.21 Y167.049 E24.38492
G1 X110.692 Y167.092 E24.50218
G1 X108.076 Y167.211 E24.62412
G1 X107.696 Y167.234 E24.64185
G1 X106.776 Y167.249 E24.68469
G1 X105.857 Y167.184 E24.72759
G1 X104.954 Y167.041 E24.77016
G1 X104.649 Y166.979 E24.78466
G1 X103.756 Y166.756 E24.82752
G1 X102.885 Y166.457 E24.8704
G1 X102.044 Y166.084 E24.91324
G1 X101.063 Y165.529 E24.96572
G1 X100.425 Y165.122 E25.00096
G1 X98.223 Y163.76 E25.12152
G1 X96.021 Y162.482 E25.24007
G1 X93.778 Y161.262 E25.35897
G1 X91.551 Y160.134 E25.47521
G1 X89.277 Y159.06 E25.59231
G1 X86.937 Y158.045 E25.71108
G1 X86.833 Y157.994 E25.71647
G1 X85.802 Y157.553 E25.76869
G1 X85.234 Y157.289 E25.79785
G1 X85.074 Y157.209 E25.80618
G1 X84.42 Y156.853 E25.84086
G1 X83.762 Y156.464 E25.87645
G1 X83.444 Y156.268 E25.89384
G1 X83.061 Y156.023 E25.91501
G1 X82.215 Y155.422 E25.96334
G1 X81.901 Y155.169 E25.98211
G1 X81.514 Y154.846 E26.00558
G1 X81.305 Y154.667 E26.0184
G1 X80.881 Y154.294 E26.04469
G1 X79.982 Y153.402 E26.10366
G1 X79.371 Y152.719 E26.14634
G1 X79.109 Y152.416 E26.16499
G1 X78.838 Y152.089 E26.18476
G1 X78.134 Y151.135 E26.23997
G1 X77.98 Y150.9 E26.25305
G1 X77.84 Y150.68 E26.2652
G1 X77.696 Y150.448 E26.27791
G1 X77.572 Y150.243 E26.28907
G1 X77.211 Y149.631 E26.32215
G1 X76.681 Y148.611 E26.37568
G1 X76.545 Y148.31 E26.39106
G1 X76.415 Y148.008 E26.40637
G1 X76.276 Y147.672 E26.4233
G1 X76.01 Y147.005 E26.45674
G1 X75.616 Y145.819 E26.51493
G1 X75.544 Y145.55 E26.5279
G1 X75.436 Y145.116 E26.54872
G1 X75.387 Y144.908 E26.55867
G1 X75.25 Y144.297 E26.58783
G1 X75.045 Y143.027 E26.64773
G1 X74.954 Y142.112 E26.69055
G1 X74.924 Y141.752 E26.70737
G1 X74.895 Y141.307 E26.72813
G1 X74.879 Y140.962 E26.74422
G1 X74.869 Y140.588 E26.76164
G1 X74.863 Y140.038 E26.78725
G1 X74.863 Y87.04 E29.25506
G1 X74.867 Y85.932 E29.30665
G1 X74.863 Y85.377 E29.33249
G1 X74.864 Y79.626 E29.60029
G1 X74.873 Y79.035 E29.62781
G1 X74.968 Y77.774 E29.68669
G1 X75.022 Y77.375 E29.70544
G1 X75.185 Y76.469 E29.7483
G1 X75.426 Y75.581 E29.79115
G1 X75.743 Y74.716 E29.83405
G1 X75.963 Y74.224 E29.85914
G1 X76.051 Y74.04 E29.86864
G1 X76.28 Y73.59 E29.89215
G1 X76.745 Y72.795 E29.93504
G1 X77.277 Y72.044 E29.97789
G1 X77.616 Y71.63 E30.00281
G1 X77.77 Y71.451 E30.0138
G0 F6000 X78.073 Y71.712
G1 F1200 X78.49 Y71.256 E30.04258
G1 X79.109 Y70.621 E30.08387
G1 X79.613 Y70.118 E30.11702
G1 X80.083 Y69.663 E30.14748
G1 X80.759 Y69.064 E30.18954
G1 X81.155 Y68.759 E30.21282
G1 X81.386 Y68.59 E30.22614
G1 X82.138 Y68.089 E30.26822
G1 X82.931 Y67.657 E30.31027
G1 X84.031 Y67.197 E30.36579
G1 X84.296 Y67.104 E30.37887
G1 X85.161 Y66.843 E30.42094
G1 X86.045 Y66.66 E30.46297
G1 X86.602 Y66.585 E30.48914
G1 X86.867 Y66.557 E30.50155
G1 X87.791 Y66.502 E30.54465
G1 X88.627 Y66.491 E30.58358
G1 X140.341 Y66.491 E32.9916
G1 X141.104 Y66.501 E33.02714
G1 X142.314 Y66.591 E33.08363
G1 X142.723 Y66.646 E33.10285
G1 X143.612 Y66.806 E33.14491
G1 X144.483 Y67.044 E33.18695
G1 X145.33 Y67.358 E33.22902
G1 X145.895 Y67.617 E33.25796
G1 X146.133 Y67.735 E33.27033
G1 X146.923 Y68.171 E33.31234
G1 X147.672 Y68.676 E33.35441
G1 X148.255 Y69.142 E33.38916
G1 X148.42 Y69.284 E33.3993
G1 X148.861 Y69.685 E33.42705
G1 X149.451 Y70.256 E33.46528
G1 X149.932 Y70.736 E33.49693
G1 X150.466 Y71.284 E33.53256
G1 X151.234 Y72.169 E33.58712
G1 X151.508 Y72.534 E33.60837
G1 X151.625 Y72.697 E33.61771
G1 X152.119 Y73.453 E33.65976
G1 X152.544 Y74.25 E33.70182
G1 X153.016 Y75.419 E33.76053
G1 X153.115 Y75.716 E33.7751
G1 X153.362 Y76.585 E33.81717
G1 X153.532 Y77.472 E33.85922
G1 X153.59 Y77.955 E33.88188
G1 X153.597 Y78.027 E33.88525
G1 X153.643 Y78.823 E33.92237
G1 X153.663 Y79.976 E33.97607
G1 X153.662 Y85.005 E34.21024
G1 X153.666 Y87.076 E34.30667
G1 X153.662 Y140.062 E36.77392
G1 X153.652 Y140.767 E36.80676
G1 X153.639 Y141.177 E36.82586
G1 X153.624 Y141.444 E36.83831
G1 X153.592 Y141.905 E36.85983
G1 X153.571 Y142.158 E36.87165
G1 X153.517 Y142.73 E36.8984
G1 X153.328 Y143.943 E36.95556
G1 X153.126 Y144.87 E36.99974
G1 X153.046 Y145.208 E37.01592
G1 X152.949 Y145.59 E37.03427
G1 X152.592 Y146.718 E37.08936
G1 X152.45 Y147.09 E37.1079
G1 X152.336 Y147.375 E37.12219
G1 X152.218 Y147.657 E37.13643
G1 X151.937 Y148.309 E37.16949
G1 X151.433 Y149.321 E37.22213
G1 X151.29 Y149.572 E37.23558
G1 X151.14 Y149.826 E37.24932
G1 X150.907 Y150.206 E37.27007
G1 X150.592 Y150.704 E37.29751
G1 X149.873 Y151.702 E37.35479
G1 X149.286 Y152.421 E37.39801
G1 X149.044 Y152.706 E37.41542
G1 X148.774 Y153.013 E37.43446
G1 X147.985 Y153.817 E37.48691
G1 X147.85 Y153.94 E37.49541
G1 X147.644 Y154.122 E37.50821
G1 X147.374 Y154.355 E37.52482
G1 X147.198 Y154.503 E37.53553
G1 X146.714 Y154.902 E37.56473
G1 X145.739 Y155.613 E37.62092
G1 X144.967 Y156.109 E37.66365
G1 X144.642 Y156.31 E37.68145
G1 X144.251 Y156.541 E37.70259
G1 X143.23 Y157.069 E37.75611
G1 X142.833 Y157.245 E37.77634
G1 X142.554 Y157.364 E37.79046
G1 X142.043 Y157.574 E37.81619
G1 X141.821 Y157.672 E37.82748
G1 X140.354 Y158.278 E37.90139
G1 X138.054 Y159.306 E38.0187
G1 X135.732 Y160.423 E38.13868
G1 X133.493 Y161.579 E38.25602
G1 X131.278 Y162.803 E38.37386
G1 X128.163 Y164.664 E38.54282
G1 X127.652 Y164.982 E38.57084
G1 X126.888 Y165.413 E38.61169
G1 X126.632 Y165.543 E38.62506
G1 X125.81 Y165.915 E38.66707
G1 X124.957 Y166.214 E38.70916
G1 X124.45 Y166.353 E38.73364
G1 X124.389 Y166.368 E38.73656
G1 X123.503 Y166.545 E38.77863
G1 X122.972 Y166.612 E38.80356
G1 X121.916 Y166.718 E38.85298
G1 X121.296 Y166.783 E38.882
G1 X120.946 Y166.814 E38.89836
G1 X120.044 Y166.854 E38.94041
G1 X119.502 Y166.84 E38.96565
G1 X118.308 Y166.776 E39.02133
G1 X115.738 Y166.675 E39.14109
G1 X113.207 Y166.648 E39.25895
G1 X110.667 Y166.692 E39.37724
G1 X108.108 Y166.809 E39.49653
G1 X107.673 Y166.835 E39.51682
G1 X106.77 Y166.849 E39.55887
G1 X105.869 Y166.783 E39.60094
G1 X105.034 Y166.649 E39.64032
G1 X104.729 Y166.587 E39.65481
G1 X103.853 Y166.368 E39.69685
G1 X103 Y166.072 E39.7389
G1 X102.176 Y165.702 E39.78096
G1 X101.278 Y165.192 E39.82904
G1 X100.645 Y164.789 E39.86399
G1 X98.412 Y163.407 E39.98627
G1 X96.207 Y162.127 E40.10499
G1 X94.011 Y160.934 E40.22136
G1 X91.71 Y159.767 E40.34149
G1 X89.428 Y158.689 E40.45901
G1 X87.096 Y157.678 E40.57736
G1 X86.981 Y157.622 E40.58332
G1 X85.96 Y157.185 E40.63503
G1 X85.412 Y156.931 E40.66316
